modules/hawcons-stroke/icons/icon-42-moonset.svg

<?xml version="1.0" encoding="UTF-8" standalone="no"?>
<svg width="32px" height="32px" viewBox="0 0 32 32" version="1.1" xmlns="http://www.w3.org/2000/svg" xmlns:xlink="http://www.w3.org/1999/xlink" xmlns:sketch="http://www.bohemiancoding.com/sketch/ns">
    <!-- Generator: Sketch 3.0.3 (7891) - http://www.bohemiancoding.com/sketch -->
    <title>icon 42 moonset</title>
    <desc>Created with Sketch.</desc>
    <defs></defs>
    <g id="Page-1" stroke="none" stroke-width="1" fill="none" fill-rule="evenodd" sketch:type="MSPage">
        <g id="icon-42-moonset" sketch:type="MSArtboardGroup" fill="#929292">
            <path d="M21.3364888,14.8310925 C20.7394286,17.222796 18.5766283,18.9946037 16,18.9946037 C12.9624337,18.9946037 10.5,16.5321699 10.5,13.4946037 C10.5,10.9179753 12.2718077,8.75517509 14.6635112,8.15811484 C15.0148964,8.07039573 15.379662,8.01647312 15.7541551,8 C15.589541,8.46764261 15.5,8.97066642 15.5,9.49460366 C15.5,11.9798852 17.5147185,13.9946037 20,13.9946037 C20.5239372,13.9946037 21.0269611,13.9050627 21.4946037,13.7404486 C21.4781305,14.1149417 21.4242079,14.4797073 21.3364888,14.8310925 L21.3364888,14.8310925 Z M11.5,13.4946037 C11.5,11.5332594 12.7547894,9.86498709 14.5053963,9.24875875 C14.5018113,9.33025889 14.5,9.41221974 14.5,9.49460366 C14.5,12.5321699 16.9624337,14.9946037 20,14.9946037 C20.0823839,14.9946037 20.1643448,14.9927923 20.2458449,14.9892073 C19.6296166,16.7398142 17.9613443,17.9946037 16,17.9946037 C13.5147185,17.9946037 11.5,15.9798852 11.5,13.4946037 L11.5,13.4946037 Z M7.5082041,22 C7.22753073,22 7,21.7680664 7,21.5 C7,21.2238576 7.22661515,21 7.5082041,21 L13.5833333,21 L14.75,22 L16.5,23.5 L18.25,22 L19.4166667,21 L25.4917959,21 C25.7724693,21 26,21.2319336 26,21.5 C26,21.7761424 25.7733849,22 25.4917959,22 L20,22 L16.5,25 L13,22 L7.5082041,22 L7.5082041,22 Z" id="moonset" sketch:type="MSShapeGroup"></path>
        </g>
    </g>
</svg>

<svg width="32" height="32" xmlns="http://www.w3.org/2000/svg"><path d="M21.336 14.831A5.5 5.5 0 1 1 15.754 8a4.5 4.5 0 0 0 5.74 5.74c-.016.375-.07.74-.158 1.091zM11.5 13.495a4.502 4.502 0 0 1 3.005-4.246 5.5 5.5 0 0 0 5.74 5.74 4.502 4.502 0 0 1-8.745-1.494zM7.508 22A.51.51 0 0 1 7 21.5c0-.276.227-.5.508-.5h6.075l1.167 1 1.75 1.5 1.75-1.5 1.167-1h6.075a.51.51 0 0 1 .508.5c0 .276-.227.5-.508.5H20l-3.5 3-3.5-3H7.508z" fill="#929292" fill-rule="evenodd"/></svg>
